dist/img/svg/bridges/back2.svg

<svg width="480" height="366" viewBox="0 0 480 366" fill="none" xmlns="http://www.w3.org/2000/svg">
<g filter="url(#filter0_d_280_436)">
<path fill-rule="evenodd" clip-rule="evenodd" d="M250.041 40.0133C307.597 39.2489 353.234 71.582 391.479 102.373C427.007 130.976 450.403 165.373 453.217 203.59C456.204 244.145 452.588 291.675 407.217 316.069C363.655 339.492 304.488 314.333 250.041 312.832C199.595 311.441 146.81 327.462 104.53 307.721C55.1081 284.647 14.1345 245.796 16.0656 203.59C17.9671 162.03 57.2295 131.43 98.7927 102.373C139.591 73.8498 193.015 40.7706 250.041 40.0133Z" fill="url(#paint0_linear_280_436)"/>
</g>
<defs>
<filter id="filter0_d_280_436" x="-24" y="0" width="518" height="366" filterUnits="userSpaceOnUse" color-interpolation-filters="sRGB">
<feFlood flood-opacity="0" result="BackgroundImageFix"/>
<feColorMatrix in="SourceAlpha" type="matrix" values="0 0 0 0 0 0 0 0 0 0 0 0 0 0 0 0 0 0 127 0" result="hardAlpha"/>
<feOffset/>
<feGaussianBlur stdDeviation="20"/>
<feComposite in2="hardAlpha" operator="out"/>
<feColorMatrix type="matrix" values="0 0 0 0 1 0 0 0 0 1 0 0 0 0 1 0 0 0 0.25 0"/>
<feBlend mode="normal" in2="BackgroundImageFix" result="effect1_dropShadow_280_436"/>
<feBlend mode="normal" in="SourceGraphic" in2="effect1_dropShadow_280_436" result="shape"/>
</filter>
<linearGradient id="paint0_linear_280_436" x1="132.845" y1="80.8571" x2="355.181" y2="357.925" gradientUnits="userSpaceOnUse">
<stop stop-color="#CEC8FF"/>
<stop offset="1" stop-color="#EF3CFF"/>
</linearGradient>
</defs>
</svg>

<svg width="480" height="366" viewBox="0 0 480 366" fill="none" xmlns="http://www.w3.org/2000/svg"><g filter="url(#filter0_d_280_436)"><path fill-rule="evenodd" clip-rule="evenodd" d="M250.041 40.013c57.556-.764 103.193 31.569 141.438 62.36 35.528 28.603 58.924 63 61.738 101.217 2.987 40.555-.629 88.085-46 112.479-43.562 23.423-102.729-1.736-157.176-3.237-50.446-1.391-103.231 14.63-145.511-5.111-49.422-23.074-90.395-61.925-88.464-104.131 1.901-41.56 41.163-72.16 82.727-101.217 40.798-28.523 94.222-61.602 151.248-62.36z" fill="url(#paint0_linear_280_436)"/></g><defs><linearGradient id="paint0_linear_280_436" x1="132.845" y1="80.857" x2="355.181" y2="357.925" gradientUnits="userSpaceOnUse"><stop stop-color="#CEC8FF"/><stop offset="1" stop-color="#EF3CFF"/></linearGradient><filter id="filter0_d_280_436" x="-24" y="0" width="518" height="366" filterUnits="userSpaceOnUse" color-interpolation-filters="sRGB"><feFlood flood-opacity="0" result="BackgroundImageFix"/><feColorMatrix in="SourceAlpha" values="0 0 0 0 0 0 0 0 0 0 0 0 0 0 0 0 0 0 127 0" result="hardAlpha"/><feOffset/><feGaussianBlur stdDeviation="20"/><feComposite in2="hardAlpha" operator="out"/><feColorMatrix values="0 0 0 0 1 0 0 0 0 1 0 0 0 0 1 0 0 0 0.25 0"/><feBlend in2="BackgroundImageFix" result="effect1_dropShadow_280_436"/><feBlend in="SourceGraphic" in2="effect1_dropShadow_280_436" result="shape"/></filter></defs></svg>
